Adwaita++-Dark/actions/22/view-barcode.svg

<svg height="22" viewBox="0 0 22 22" width="22" xmlns="http://www.w3.org/2000/svg">
  <path d="m1 2.0292969v13.0000001h2v-13.0000001zm3 0v6h1v-6zm2 0v13.0000001h1v-13.0000001zm2 0v13.0000001h1v-13.0000001zm2 0v7h1v-7zm2 0v13.0000001h3v-13.0000001z" fill="#e6ddff" transform="translate(3 3)"/>
</svg>

<svg xmlns="http://www.w3.org/2000/svg" width="22" height="22" viewBox="0 0 22 22">
 <defs>
  <style id="current-color-scheme" type="text/css">
   .ColorScheme-Text { color:#E6DDFF; } .ColorScheme-Highlight { color:#4285f4; }
  </style>
 </defs>
 <path style="fill:currentColor" class="ColorScheme-Text" d="M 1 2.0292969 L 1 15.029297 L 3 15.029297 L 3 2.0292969 L 1 2.0292969 z M 4 2.0292969 L 4 8.0292969 L 5 8.0292969 L 5 2.0292969 L 4 2.0292969 z M 6 2.0292969 L 6 15.029297 L 7 15.029297 L 7 2.0292969 L 6 2.0292969 z M 8 2.0292969 L 8 15.029297 L 9 15.029297 L 9 2.0292969 L 8 2.0292969 z M 10 2.0292969 L 10 9.0292969 L 11 9.0292969 L 11 2.0292969 L 10 2.0292969 z M 12 2.0292969 L 12 15.029297 L 15 15.029297 L 15 2.0292969 L 12 2.0292969 z" transform="translate(3 3)"/>
</svg>
